picto/tracks-55-fr-small-framed.svg

<svg class="color-immutable" width="30" height="30" viewBox="0 0 30 30" fill="none" xmlns="http://www.w3.org/2000/svg"><path d="M30 0H0V30H30V0Z" fill="#2D327D"/><path d="M25.5 3C26.325 3 27 3.675 27 4.5V25.5C27 26.325 26.325 27 25.5 27H4.5C3.675 27 3 26.325 3 25.5V4.5C3 3.675 3.675 3 4.5 3H25.5ZM25.5 2.625H4.5C3.46613 2.625 2.625 3.46613 2.625 4.5V25.5C2.625 26.5339 3.46613 27.375 4.5 27.375H25.5C26.5339 27.375 27.375 26.5339 27.375 25.5V4.5C27.375 3.46613 26.5339 2.625 25.5 2.625Z" fill="white"/><path d="M13.7142 12.7566V14.7561H9.18453L8.70003 17.2863C9.2434 16.7122 9.9382 16.425 10.7841 16.425C11.6147 16.425 12.3376 16.6481 12.9528 17.0941C13.8654 17.7658 14.3217 18.786 14.3217 20.1549C14.3217 21.4982 13.8346 22.562 12.8606 23.3465C12.1017 23.9617 11.1943 24.2693 10.1382 24.2693C8.94865 24.2693 7.99255 23.9502 7.26963 23.3118C6.5467 22.6736 6.16473 21.811 6.12378 20.724H8.33095C8.3668 21.1189 8.49498 21.4546 8.71548 21.7315C9.0589 22.1674 9.53575 22.3852 10.1459 22.3852C10.7354 22.3852 11.202 22.1725 11.5455 21.7469C11.8788 21.3316 12.0454 20.8266 12.0454 20.2318C12.0454 19.5859 11.871 19.0694 11.5224 18.6822C11.1738 18.2952 10.7098 18.1016 10.1304 18.1016C9.42288 18.1016 8.8717 18.4196 8.47698 19.0553L6.46975 19.0245L7.53873 12.7567H13.7142V12.7566Z" fill="white"/><path d="M23.2611 12.7566V14.7561H18.7314L18.2469 17.2863C18.7903 16.7122 19.4851 16.425 20.331 16.425C21.1616 16.425 21.8845 16.6481 22.4997 17.0941C23.4122 17.7658 23.8686 18.786 23.8686 20.1549C23.8686 21.4982 23.3815 22.562 22.4075 23.3465C21.6486 23.9617 20.7411 24.2693 19.685 24.2693C18.4955 24.2693 17.5394 23.9502 16.8165 23.3118C16.0936 22.6736 15.7116 21.811 15.6707 20.724H17.8778C17.9137 21.1189 18.0419 21.4546 18.2624 21.7315C18.6058 22.1674 19.0826 22.3852 19.6928 22.3852C20.2823 22.3852 20.7488 22.1725 21.0924 21.7469C21.4256 21.3316 21.5923 20.8266 21.5923 20.2318C21.5923 19.5859 21.4179 19.0694 21.0693 18.6822C20.7206 18.2952 20.2566 18.1016 19.6773 18.1016C18.9698 18.1016 18.4186 18.4196 18.0239 19.0553L16.0166 19.0245L17.0856 12.7567H23.2611V12.7566Z" fill="white"/><path d="M8.03591 6L7.28839 8.24865H6.73009L5.99329 6H6.50704L7.01306 7.6842L7.52681 6H8.03591Z" fill="white"/><path d="M8.87413 6.5229C9.11818 6.5229 9.3176 6.6039 9.47248 6.7659C9.62525 6.92588 9.70168 7.13918 9.70168 7.40573C9.70168 7.68158 9.62015 7.90148 9.4571 8.06558C9.30433 8.21835 9.10543 8.29478 8.86033 8.29478C8.59888 8.29478 8.39068 8.20965 8.23588 8.03948C8.0882 7.87748 8.0144 7.66725 8.0144 7.40888C8.0144 7.15455 8.08618 6.94793 8.22973 6.789C8.38865 6.61163 8.60345 6.5229 8.87413 6.5229ZM8.8511 6.87053C8.7332 6.87053 8.63938 6.91823 8.56963 7.01355C8.4989 7.10993 8.4635 7.2417 8.4635 7.40888C8.4635 7.5822 8.49838 7.71495 8.56813 7.80728C8.6399 7.90058 8.73785 7.94723 8.8619 7.94723C8.97778 7.94723 9.06958 7.9047 9.13723 7.81958C9.2141 7.72523 9.25258 7.58835 9.25258 7.40888C9.25258 7.24073 9.21875 7.11 9.15103 7.0167C9.0803 6.91928 8.98033 6.87053 8.8511 6.87053Z" fill="white"/><path d="M10.4491 6V6.40147H10.0031V6H10.4491ZM10.4491 6.57217V8.24873H10.0031V6.57217H10.4491Z" fill="white"/><path d="M12.321 7.72575C12.2975 7.8201 12.2549 7.90875 12.1934 7.99185C12.0457 8.19382 11.8334 8.29485 11.5566 8.29485C11.3064 8.29485 11.1059 8.21587 10.9552 8.058C10.8814 7.98112 10.825 7.88827 10.786 7.7796C10.7439 7.66372 10.7229 7.54275 10.7229 7.4166C10.7229 7.17255 10.7932 6.9675 10.9337 6.80137C11.0906 6.61575 11.2936 6.52297 11.5427 6.52297C11.7437 6.52297 11.915 6.585 12.0565 6.70905C12.158 6.79822 12.2318 6.90825 12.278 7.03897C12.3241 7.1697 12.3472 7.33402 12.3472 7.53195H11.1767C11.1809 7.614 11.1937 7.68217 11.2152 7.73655C11.2757 7.88317 11.3906 7.95652 11.5598 7.95652C11.6428 7.95652 11.7105 7.9383 11.7628 7.90192C11.8151 7.86555 11.8581 7.80682 11.892 7.72582H12.321V7.72575ZM11.8919 7.23202C11.8838 7.15102 11.8653 7.08382 11.8366 7.0305C11.8079 6.97822 11.7671 6.93667 11.7143 6.90592C11.6615 6.87517 11.6039 6.8598 11.5413 6.8598C11.4419 6.8598 11.3598 6.8931 11.2952 6.95977C11.2307 7.02645 11.1922 7.1172 11.1799 7.23202H11.8919Z" fill="white"/></svg>

<svg class="color-immutable" width="30" height="30" viewBox="0 0 30 30" fill="none" xmlns="http://www.w3.org/2000/svg"><g clip-path="url(#a)"><path d="M30 0H0v30h30V0Z" fill="#2D327D"/><path d="M25.5 3c.825 0 1.5.675 1.5 1.5v21c0 .825-.675 1.5-1.5 1.5h-21c-.825 0-1.5-.675-1.5-1.5v-21C3 3.675 3.675 3 4.5 3h21Zm0-.375h-21A1.877 1.877 0 0 0 2.625 4.5v21c0 1.034.841 1.875 1.875 1.875h21a1.877 1.877 0 0 0 1.875-1.875v-21A1.877 1.877 0 0 0 25.5 2.625Z" fill="#fff"/><path d="M13.714 12.757v2h-4.53l-.484 2.53c.543-.575 1.238-.862 2.084-.862.83 0 1.554.223 2.169.67.912.67 1.369 1.691 1.369 3.06 0 1.343-.487 2.407-1.461 3.191-.76.616-1.667.923-2.723.923-1.19 0-2.145-.319-2.868-.957-.723-.638-1.105-1.501-1.146-2.588H8.33c.036.395.164.73.384 1.008.344.435.82.653 1.43.653.59 0 1.057-.213 1.4-.638.334-.415.5-.92.5-1.515 0-.646-.174-1.163-.523-1.55-.348-.387-.812-.58-1.392-.58-.707 0-1.258.318-1.653.953l-2.007-.03 1.069-6.268h6.175ZM23.261 12.757v2h-4.53l-.484 2.53c.543-.575 1.238-.862 2.084-.862.83 0 1.553.223 2.169.67.912.67 1.369 1.691 1.369 3.06 0 1.343-.488 2.407-1.462 3.191-.758.616-1.666.923-2.722.923-1.19 0-2.146-.319-2.868-.957-.723-.638-1.105-1.501-1.146-2.588h2.207c.036.395.164.73.384 1.008.344.435.82.653 1.43.653.59 0 1.057-.213 1.4-.638.334-.415.5-.92.5-1.515 0-.646-.174-1.163-.523-1.55-.348-.387-.812-.58-1.392-.58-.707 0-1.258.318-1.653.953l-2.007-.03 1.069-6.268h6.175ZM8.036 6l-.748 2.249H6.73L5.993 6h.514l.506 1.684L7.527 6h.509ZM8.874 6.523c.244 0 .444.08.598.243.153.16.23.373.23.64 0 .276-.082.495-.245.66a.807.807 0 0 1-.597.229c-.261 0-.47-.085-.624-.256-.148-.162-.222-.372-.222-.63 0-.254.072-.461.216-.62.159-.177.373-.266.644-.266Zm-.023.348a.331.331 0 0 0-.281.143.656.656 0 0 0-.107.395c0 .173.035.306.105.398a.35.35 0 0 0 .294.14.333.333 0 0 0 .275-.127c.077-.095.116-.232.116-.411 0-.168-.034-.299-.102-.392a.349.349 0 0 0-.3-.146ZM10.45 6v.401h-.447V6h.446Zm0 .572V8.25h-.447V6.572h.446ZM12.321 7.726a.75.75 0 0 1-.128.266c-.147.202-.36.303-.636.303-.25 0-.451-.08-.602-.237a.773.773 0 0 1-.169-.278 1.055 1.055 0 0 1-.063-.363c0-.244.07-.45.21-.616a.76.76 0 0 1 .61-.278c.2 0 .372.062.514.186.101.09.175.2.221.33.046.13.07.295.07.493h-1.171c.004.082.017.15.038.205.06.146.176.22.345.22.083 0 .15-.019.203-.055a.39.39 0 0 0 .129-.176h.429Zm-.43-.494a.537.537 0 0 0-.054-.202.337.337 0 0 0-.295-.17c-.1 0-.182.033-.247.1a.447.447 0 0 0-.115.272h.712Z" fill="#fff"/></g><defs><clipPath id="a"><path fill="#fff" d="M0 0h30v30H0z"/></clipPath></defs></svg>
